X: 193
T: Tinten Banat
O: Yemenite Folk 1969
M: 4/4
L: 1/8
K: Am
|:C2 EDED E2  |D2 C3B, A,2 |D2 C3A, _B,2|G,2 A,6::
  D2 C3A, _B,2|D2 C3A, _B,2|D2 C3A, _B,2|G,2 A,6 :|



